X:1
T:Title
%%score 1 2
L:1/8
Q:1/4=135
M:3/2
K:Eb
V:1 treble nm="Grand Piano, Soprano"
V:2 bass nm="Choir Pad, Cantabria, John M. Whyte"
V:1
 [GB]2 [GB]2 [FA]2 [EG]6 | [FA]2 [GB]2 [Ac]2 [GB]6 | E2 [EG]2 [GB]2 [FB]6 | %3
w: By~John~Marchant~Whyte,~1889 * * *|||
 [EG]2 [EG]2 [DF]2 [DF]6 | [EG]2 [DA]2 [EB]2 [Ec]6 | [Ee]2 [Ed]2 [Ec]2 [EB]6 | %6
w: |||
 [Ge]2 [Ge]2 [EG]2 [EB]6 | E2 [EG]2 [DF]2 E6 | [EG]2 [DF]2 [FA]2 [FA]6 | [DF]2 [FA]2 [EG]2 [EG]6 | %10
w: ||||
 [GB]2 [GB]2 [EG]2 [EG]6 | E2 [EG]2 [DF]2 [DF]6 | [EG]2 [DA]2 [EB]2 [Ec]6 | %13
w: |||
 [Ee]2 [Fd]2 [Ac]2 [GB]6 | [Ge]2 [Ge]2 [EG]2 [GB]6 | E2 [EG]2 [DF]2 E6- | E8 z4 |] %17
w: ||||
V:2
 [E,B,]2 [E,B,]2 [E,B,]2 [E,B,]6 | [E,B,]2 [E,B,]2 [E,B,]2 [E,E]6 | %2
 [E,G,]2 [E,B,]2 [E,B,]2 [D,B,]6 | [E,B,]2 [B,,B,]2 [B,,B,]2 [B,,B,]6 | %4
 [E,B,]2 [F,B,]2 [G,B,]2 A,6 | [A,C]2 [A,B,]2 A,2 [E,G,]6 | [E,B,]2 [E,B,]2 [E,B,]2 [G,B,]6 | %7
 [E,G,]2 [B,,B,]2 [B,,A,]2 [E,G,]6 | z4 [B,,B,]2 [B,,B,]2 [B,,B,]2 [B,,B,]2 | %9
 z4 [E,B,]2 [E,B,]2 [E,B,]2 [E,B,]2 | [E,E]2 [E,E]2 [E,B,]2 [E,B,]2 [E,B,]2 [E,B,]2 | %11
 z4 [B,,B,]2 [B,,B,]2 [B,,B,]2 [B,,B,]2 | [E,B,]2 [F,B,]2 [G,B,]2 A,2 A,2 A,2 | %13
 z4 [A,E]2 [E,E]2 [E,E]2 [E,E]2 | z4 [E,E]2 [E,E]2 [E,B,]2 [E,B,]2 | %15
 [E,G,]2 [B,,B,]2 [B,,A,]2 [E,G,]6- | [E,G,]8 z4 |] %17

